X: 14
T: Beaver Creek
L:1/8
M:2/4
S: Viola "Mom" Ruth - Pioneer Western Folk Tunes (1948)
Z:AK/Fiddler's Companion
N:"Arranged to fit call `Take a Peek'".
K:G
(3D/E/F/|GGGG|EED>D|GG G/G/G/G/|BB A(3D/E/F/|
GGGG|EED>D|GG G/G/G/G/|BA G2||Bdd<d|Bd d2|
[Ec][Ec][Ec][Ec] [GB][GB][GB][GB]|A>(AB/) A/F/E/D/|
GGGG|EED>D|GG [B,G][B,G][B,G][B,G]|AB G2:|

%%sep 1 1 500
